X:3019
T:Ballad
C:anon.
O:England
R:Ballad
Z:Transcribed by Frank Nordberg - http://www.musicaviva.com
F:http://abc.musicaviva.com/tunes/england/ballad-01/ballad-01-1.abc
M:3/4
L:1/4
K:F
"F"CFF|"C"FE/F/G|"C"CGG|"F"GF/G/A|
"F"CAA|"Bb"AG/A/"Gm"B|"C7"CDE|"F"F3:|
|:"F7"Ccc|"Bb"cB/c/d|"C7"CBB|"F"BA/B/c|
"F7"CAA|"Bb"AG/A/"Gm"B|"C"CDE|"F"F3:|
W:
W:
W:  From Musica Viva - http://www.musicaviva.com
W:  the Internet center for free sheet music downloads.
